X: 41571
T: Untitled
R: reel
M: 4/4
K: Dmajor
|"G"d2 {d}BA DdAG|"Bm"Ffed "A"~eAdc|"G"BCB,B ADED|"Bm"A,FED "A"EA, dc|
"G"~B2 AB "A"BdAd|"Bm"AeAf "A"eA g/f/e|"G"dDAB dBAF|"A"EA,DE {F}GFEA,|
"Em"D2 DE {E}FA E/F/A|"G"~BABd "A"{d}e2 Ae|"Bm"Adef d/e/d BA|"F#m"FEFA "G"{A}B2 D~B-|
"G"B)ABd "D"A/B/A FD|"A"zEED "Bm"EFD2|"G"{E}DB,A,B, DGGF|"A"[(3E/F/E/ D EF DA,A,B,|

